icon/gr/transaction.svg

<svg xmlns="http://www.w3.org/2000/svg" width="24" height="24"><path fill="none" stroke="#000" stroke-width="2" d="M2 7h18m-4-5 5 5-5 5m6 5H4m4-5-5 5 5 5"/></svg>

<svg xmlns="http://www.w3.org/2000/svg" viewBox="0 0 24 24" height="1em" width="1em">
  <path fill="none" stroke="#000" stroke-width="2" d="M2,7 L20,7 M16,2 L21,7 L16,12 M22,17 L4,17 M8,12 L3,17 L8,22"/>
</svg>
